X:1
T:Title
%%score { ( 1 3 ) | 2 }
L:1/8
Q:1/4=100
M:4/4
K:F
V:1 treble nm="Grand Piano"
V:3 treble 
V:2 treble 
V:1
 A3 B c2 A2 | z4 c4 | [CEB]2 [CG]2 [CFA]2 [A,CF]2 | [FA]2 [FG]2 [EG]4 | A3 B c2 A2 | %5
w: Frank~L.~Armstrong * * *|||||
 [Fd]2 [Fd]2 [Gf]4 | [Fc]3 [FA] [FA]2 [A,F]2 | [B,EG]3 [A,F] [A,F]2 z2 | %8
w: |||
 [A,^CA]3 [A,DA] [A,EA]2 [A,EG]2 | [A,DF]3 [A,^CE] [A,DF]4 | [CEc]3 [CFc] [CGc]2 [CGB]2 | %11
w: |||
 [CFA]3 [CEG] [CFA]4 | [Fd]2 [Fc]2 [FB]2 A2 | G2 A2 [EG]4 | A3 B c2 A2 | [Fd]2 [Fd]2 [Gf]4 | %16
w: |||||
 [Fc]3 [FA] [FA]2 [A,F]2 |[M:9/8] [B,EG]3 [A,F] [A,F]2- [A,F] z z |] %18
w: ||
V:2
 [F,CF]3 [G,CF] [A,CF]2[K:bass] [F,CF]2 | [B,,B,]2 [D,B,]2 [F,A,F]2 F,2 | C,2 E,2 F,2 A,,2 | %3
 [=B,,G,]2 [D,=B,]2 [C,C]4 | [F,CF]3 [G,CF] [A,CF]2[K:bass] [F,CF]2 | [B,,B,]2 [D,B,]2 [=B,,G,]4 | %6
 [C,A,]3 [C,C] [C,C]2 C,2 | C,3 F, F,2 z2 | A,,3 =B,, ^C,2 A,,2 | D,3 D, D,4 | C,3 D, E,2 C,2 | %11
 F,3 F, F,4 | [B,,B,]2 [C,A,]2 [D,B,]2[K:treble] [F,CF]2 | [G,=B,F]2 [G,B,F]2[K:bass] [C,C]4 | %14
 [F,CF]3[K:treble] [G,CF] [A,CF]2[K:bass] [F,CF]2 | [B,,B,]2 [D,B,]2 [=B,,G,]4 | %16
 [C,A,]3 [C,C] [C,C]2 C,2 |[M:9/8] C,3 F, F,2- F, z z |] %18
V:3
 x8 | [Fd]2 [Fd]2 z2 A2 | x8 | x8 | x8 | x8 | x8 | x8 | x8 | x8 | x8 | x8 | x8 | x8 | x8 | x8 | %16
 x8 |[M:9/8] x9 |] %18

